X: 4772
T: Boys Of Malin, The
R: reel
M: 4/4
K: Amajor
|:ABcd eAce|fedf edcB|ABcd eAce|1 feBc d2cB:|2 feBc defg||
aAAA cAce|abag fefg|aAAA cAce|dcBc defg|
aAAA cAce|abag f2g2|affe fedc|dcBc d2cB|
|:Aece Aece|Aece d2cB|Aece Aece|feBc d2cB:|

